docs/themes/v2/source/images/new/youtubeicon.svg

<svg fill="none" height="12" viewBox="0 0 18 12" width="18" xmlns="http://www.w3.org/2000/svg"><path clip-rule="evenodd" d="m16.0229.35229c.7772.198148 1.3828.78158 1.5885 1.51913.3772 1.343.3886 4.12808.3886 4.12808s0 2.79609-.3771 4.1281c-.2057.7375-.9257 1.343-1.7028 1.5411-1.4057.3523-6.92541.3303-6.92541.3303s-5.51975.033-6.9254-.3303c-.76568-.1981-1.519932-.8036-1.725637-1.5411-.3771257-1.34302-.34284154-4.1281-.34284154-4.1281s-.03428416-2.78508.34284154-4.12808c.205705-.73755.948527-1.342998 1.725637-1.541146 1.40565-.3522627 6.9254-.33024633 6.9254-.33024633s5.62261 0 7.02821.35226233zm-4.2626 5.64739-4.49126 2.66398v-5.32797z" fill="#e68f52" fill-rule="evenodd"/></svg>

<svg width="18" height="12" viewBox="0 0 18 12" fill="none" xmlns="http://www.w3.org/2000/svg">
<path fill-rule="evenodd" clip-rule="evenodd" d="M16.0229 0.35229C16.8001 0.550438 17.4057 1.13387 17.6114 1.87142C17.9886 3.21442 18 5.9995 18 5.9995C18 5.9995 18 8.79559 17.6229 10.1276C17.4172 10.8651 16.6972 11.4706 15.9201 11.6687C14.5144 12.021 8.99469 11.999 8.99469 11.999C8.99469 11.999 3.47494 12.032 2.06929 11.6687C1.30361 11.4706 0.549358 10.8651 0.343653 10.1276C-0.0334727 8.78458 0.000811459 5.9995 0.000811459 5.9995C0.000811459 5.9995 -0.0334727 3.21442 0.343653 1.87142C0.549358 1.13387 1.29218 0.528422 2.06929 0.330274C3.47494 -0.0219887 8.99469 2.76666e-05 8.99469 2.76666e-05C8.99469 2.76666e-05 14.6173 2.76666e-05 16.0229 0.35229ZM11.7603 5.99968L7.26904 8.66366V3.33569L11.7603 5.99968Z" fill="#E68F52"/>
</svg>
